X:1
T: The Joy of my Life
C:
R:Jig
Q:180
K:G
M:6/8
L:1/16
D2|G2F2G2 A2G2A2|B2g2e2 d2B2A2|B2A2B2 G2A2B2|A2G2E2 G2E2D2|G2F2G2 A2G2A2|B2g2e2 d2B2A2|B2A2B2 G2A2B2|A2G2F2 G4G2|
G2F2G2 A2G2A2|B2g2e2 d2B2A2|B2A2B2 G2A2B2|A2G2E2 G2E2D2|G2F2G2 A2G2A2|B2g2e2 d2B2A2|B2A2B2 G2A2B2|A2G2F2 G4f2|
g2f2e2 f2e2d2|e2f2g2 d2B2A2|B2e2e2 d2B2A2|B2e2e2 e4f2|g2f2e2 f2e2d2|e2f2g2 d2B2A2|B2A2B2 G2A2B2|A2G2F2 G4f2|
g2f2e2 f2e2d2|e2f2g2 d2B2A2|B2e2e2 d2B2A2|B2e2e2 e4f2|g2b2g2 f2a2f2|e2g2e2 d2B2A2|B2A2B2 G2A2B2|A2G2F2 G4||
